modules/hawcons-filled/icons/icon-138-certificate.svg

<?xml version="1.0" encoding="UTF-8" standalone="no"?>
<svg width="32px" height="32px" viewBox="0 0 32 32" version="1.1" xmlns="http://www.w3.org/2000/svg" xmlns:xlink="http://www.w3.org/1999/xlink" xmlns:sketch="http://www.bohemiancoding.com/sketch/ns">
    <!-- Generator: Sketch 3.0.3 (7891) - http://www.bohemiancoding.com/sketch -->
    <title>icon 138 certificate</title>
    <desc>Created with Sketch.</desc>
    <defs></defs>
    <g id="Page-1" stroke="none" stroke-width="1" fill="none" fill-rule="evenodd" sketch:type="MSPage">
        <g id="icon-138-certificate" sketch:type="MSArtboardGroup" fill="#929292">
            <path d="M13,18.9494914 L13,22 L25.9950534,22 C27.1023548,22 28,21.1099416 28,19.9998938 L28,7.00010618 C28,5.89547804 27.1029738,5 25.9950534,5 L6.00494659,5 C4.89764516,5 4,5.89005841 4,7.00010618 L4,19.9998938 C4,21.104522 4.89702623,22 6.00494659,22 L8,22 L8,18.9494914 C7.38140648,18.3182229 7,17.4536526 7,16.5 C7,14.5670033 8.56700328,13 10.5,13 C12.4329967,13 14,14.5670033 14,16.5 C14,17.4536526 13.6185935,18.3182229 13,18.9494914 L13,18.9494914 L13,18.9494914 Z M9,19.6631845 L9,24.5999756 L10.5,23.1000061 L12,24.5999756 L12,19.6631845 C11.5453723,19.8791545 11.0367987,20 10.5,20 C9.96320134,20 9.45462768,19.8791545 9,19.6631845 L9,19.6631845 L9,19.6631845 Z M7,10 L7,11 L25,11 L25,10 L7,10 L7,10 Z M16,13 L16,14 L25,14 L25,13 L16,13 L16,13 Z M19,16 L19,17 L25,17 L25,16 L19,16 L19,16 Z M10.5,19 C11.8807119,19 13,17.8807119 13,16.5 C13,15.1192881 11.8807119,14 10.5,14 C9.11928806,14 8,15.1192881 8,16.5 C8,17.8807119 9.11928806,19 10.5,19 L10.5,19 Z" id="certificate" sketch:type="MSShapeGroup"></path>
        </g>
    </g>
</svg>

<svg width="32" height="32" xmlns="http://www.w3.org/2000/svg"><path d="M13 18.95V22h12.995A2 2 0 0 0 28 20V7c0-1.105-.897-2-2.005-2H6.005A2 2 0 0 0 4 7v13c0 1.105.897 2 2.005 2H8v-3.05a3.5 3.5 0 1 1 5 0zm-4 .713V24.6l1.5-1.5 1.5 1.5v-4.937a3.486 3.486 0 0 1-1.5.337c-.537 0-1.045-.12-1.5-.337zM7 10v1h18v-1H7zm9 3v1h9v-1h-9zm3 3v1h6v-1h-6zm-8.5 3a2.5 2.5 0 1 0 0-5 2.5 2.5 0 0 0 0 5z" fill="#929292" fill-rule="evenodd"/></svg>
